X: 1420
T: Push About The Jorum
M:C|
L:1/8
N:"collected by J. O'Neill"
B:O'Neill's 1420
Z:"Transcribed by Bob Safranek, rjs@gsp.org"
K:D
(d"   Sign"B) | A(D (3FED) CEEG | FDAD BcdB | A(D (3FED) CEEG | FGEF D2 :|
K:A
(ed| (3(cBA)) (eA) fAeA|((3fga) (ec) dcBA|((3cBA) (eA) fAeA|((3fga) (ec) d2 (ed|
     (3(cBA))  eA  fAeA|((3fga) (ec) dcBA|dfdB        cecA|Bcde fdB"   Sign"d |]


